X:0794
T:"Connie The Soldier" (jig)      0794
C: after  Chief  F. O'Neill.
N:Added anacrucis to preserve (jig) scanscion:  probably typesetting error.
B:O'Neill's Music Of Ireland (The 1850) Lyon & Healy, Chicago, 1903 edition
Z:FROM O'NEILL'S TO NOTEWORTHY, FROM NOTEWORTHY TO ABC, MIDI AND .TXT BY VINCE
BRENNAN July 2003 (HTTP://WWW.SOSYOURMOM.COM)
I:abc2nwc
M:6/8
L:1/8
K:D
D|EAA A2d|cAG EFD|DGG DEE|DGG GED|
EAA A2d|cAG EFD|EFG AGE|EDD D2:|
|:(d/2e/2)|fdd ede|fdd d2e|fed ded|cAA A2(d/2e/2)|
fdd ede|fed A2G|DFG AGE|EDD D2:|
